icons/lines/like-dislike.svg

<svg xmlns="http://www.w3.org/2000/svg" width="24" height="24" viewBox="0 0 24 24" fill="none" stroke="currentColor" stroke-width="2" stroke-linecap="round" stroke-linejoin="round" >
  <path d="M4.91992 20.28L6.68993 21.65C6.91993 21.88 7.42992 21.99 7.77992 21.99H9.94992C10.6399 21.99 11.3799 21.48 11.5499 20.79L12.9199 16.62C13.2099 15.82 12.6899 15.13 11.8299 15.13H9.53992C9.19992 15.13 8.90992 14.8399 8.96992 14.4399L9.25993 12.61C9.36993 12.1 9.02992 11.52 8.51992 11.35C8.05992 11.18 7.48993 11.41 7.25993 11.75L4.91992 15.24" stroke-miterlimit="10"/>
  <path d="M2 20.28V14.6801C2 13.8801 2.34 13.59 3.14 13.59H3.71C4.51 13.59 4.85 13.8801 4.85 14.6801V20.28C4.85 21.08 4.51 21.37 3.71 21.37H3.14C2.34 21.37 2 21.09 2 20.28Z"/>
  <path d="M19.0798 3.71997L17.3098 2.34998C17.0798 2.11998 16.5698 2.01001 16.2198 2.01001H14.0498C13.3598 2.01001 12.6198 2.51996 12.4498 3.20996L11.0798 7.38C10.7898 8.18 11.3098 8.87 12.1698 8.87H14.4598C14.7998 8.87 15.0898 9.16006 15.0298 9.56006L14.7398 11.39C14.6298 11.9 14.9698 12.48 15.4798 12.65C15.9398 12.82 16.5098 12.59 16.7398 12.25L19.0798 8.76001" stroke-miterlimit="10"/>
  <path d="M21.9994 3.71997V9.31995C21.9994 10.1199 21.6594 10.41 20.8594 10.41H20.2894C19.4894 10.41 19.1494 10.1199 19.1494 9.31995V3.71997C19.1494 2.91997 19.4894 2.63 20.2894 2.63H20.8594C21.6594 2.63 21.9994 2.90997 21.9994 3.71997Z"/>
  </svg>

<svg xmlns="http://www.w3.org/2000/svg" width="24" height="24" viewBox="0 0 24 24" fill="none" stroke="currentColor" stroke-width="2" stroke-linecap="round" stroke-linejoin="round">
  <path d="m19.08 3.72-1.77-1.37c-.23-.23-.74-.34-1.09-.34h-2.17c-.69 0-1.43.51-1.6 1.2l-1.37 4.17c-.29.8.23 1.49 1.09 1.49h2.29a.58.58 0 0 1 .57.69l-.29 1.83c-.11.51.23 1.09.74 1.26.46.17 1.03-.06 1.26-.4l2.34-3.49" />
  <path d="M2 14.68c0-.8.34-1.09 1.14-1.09h.57c.8 0 1.14.29 1.14 1.09v5.6c0 .8-.34 1.09-1.14 1.09h-.57c-.8 0-1.14-.28-1.14-1.09z" />
  <path d="M22 9.32c0 .8-.34 1.09-1.14 1.09h-.57c-.8 0-1.14-.29-1.14-1.09v-5.6c0-.8.34-1.09 1.14-1.09h.57c.8 0 1.14.28 1.14 1.09z" />
  <path d="m4.92 20.28 1.77 1.37c.23.23.74.34 1.09.34h2.17c.69 0 1.43-.51 1.6-1.2l1.37-4.17c.29-.8-.23-1.49-1.09-1.49H9.54a.58.58 0 0 1-.57-.69l.29-1.83c.11-.51-.23-1.09-.74-1.26-.46-.17-1.03.06-1.26.4l-2.34 3.49" />
</svg>
